X:1
T:Paddy Lynn's Delight
M:4/4
R:reel
K:Gmin
||:Bc|dGGA BAGF|D~F3 GFDF|G2Ac BAGB|(3ABc dc c2 gf|
dGGA BAGF|D~F3 GFDF|1 GABd gfdc|BcAF ~G2:|2 GABd gfdc|BcAF ~G2 Ac||
B2fB gBfB|B2df gbfd|B2fB gBfB|ccdc BGGA|
B2fB gBfB|Bcdf g2 gf|1 gbag fdcA|DGGF G2 Ac:|2 gbag fdcA|DGGF G2||
